Yaru++/mimetypes/48/application-msaccess.svg

<svg height="48" viewBox="0 0 12.699375 12.699376" width="48" xmlns="http://www.w3.org/2000/svg" xmlns:xlink="http://www.w3.org/1999/xlink"><linearGradient id="a" gradientUnits="userSpaceOnUse" x1="6.350072" x2="6.350072" y1=".396856" y2="12.03795"><stop offset="0" stop-color="#fff"/><stop offset=".125" stop-color="#fff" stop-opacity=".098039"/><stop offset=".92500001" stop-color="#fff" stop-opacity=".098039"/><stop offset="1" stop-color="#fff" stop-opacity=".498039"/></linearGradient><linearGradient id="b" gradientTransform="matrix(0 -.03065201 .03080135 0 -3.299968 13.793737)" gradientUnits="userSpaceOnUse" x1="441.37933" x2="52.965569" y1="240.30261" y2="386.30783"><stop offset="0" stop-color="#b52428"/><stop offset="1" stop-color="#d32429"/></linearGradient><path d="m4.1621984.39685714c-.5881134-.0089584-1.0513178.0135407-1.4323996.0775109-.3810845.0639688-.692923.1839555-.9213477.4118407-.2284221.22788546-.3489841.53958346-.4123567.92082876-.0633725.3812456-.0757438.8453924-.07286 1.4349839v3.239953 3.2415029c-.00286.5886857.00955 1.0525967.07286 1.4334327.063373.381246.1839346.692944.4123567.920829.2284247.227885.5402632.347873.9213477.411841.3810845.06397.8442175.07751 1.4323996.07751h4.3757445c.5881822 0 1.0510744-.01352 1.4313678-.07751.3802933-.064.6911793-.18439.9187603-.412357.227583-.227967.347433-.539443.411325-.920313.06389-.380867.07751-.844073.07751-1.4334327v-3.2415029-3.1748438l-2.8389631-2.84361416z" opacity=".1"/><path d="m4.101678.26457244c-2.3993778 0-2.6575482.2452432-2.645788 2.63774856v3.3150837 3.3150836c-.011773 2.3925037.2464102 2.6377477 2.645788 2.6377477h4.4971584c2.3993776 0 2.6457876-.245215 2.6457876-2.6377477v-3.3150836l-.000182-3.2469994-2.7190927-2.70583286z" fill="url(#b)"/><g fill="#fff"><g enable-background="new" stroke-width="1.333333" transform="matrix(.26457032 0 0 .26457032 -84.662188 -14.948135)"><path d="m344.63307 72.126623-12.63281 1.873047-.002 19.133142 12.54666 1.867188h1.45313s-.007-22.873377.002-22.873377zm-5.24049 7.457361c.89543 2.993679 1.74416 6.003636 2.6289 9-.61744-.04012-1.2336-.0864-1.8457-.142578-.16305-.668234-.33726-1.336394-.51367-2.001953-.82059-.0031-1.64107-.03019-2.45899-.07031-.15771.633482-.31742 1.265677-.48046 1.896484-.5239-.04012-1.04519-.07854-1.56641-.113281.78049-2.814588 1.59205-5.619005 2.36719-8.433594.62279-.04545 1.24367-.0867 1.86914-.134766zm-1.00586 1.59961c-.17908 1.269638-.57963 2.493205-.84961 3.74414.58805.0052 1.17687.0076 1.76758.0098-.3047-1.250925-.6774-2.486943-.91797-3.753906z"/><path d="m349.42578 75.001953c-.8117.0082-1.62246.07363-2.42578.167969v3.724609c2.56977.326134 5.22264.206585 7.6875-.625.55692-.24365 1.26092-.548769 1.37695-1.224609-.15664-.82668-1.08409-1.136381-1.77734-1.394531-1.57359-.48042-3.21735-.664578-4.86133-.648438zm6.63672 3.443359c-1.03262.829581-2.36436 1.106382-3.64062 1.294922-1.79697.235532-3.62027.247776-5.42188.06055v3.757813c2.29542.24999 4.63621.213056 6.88867-.31836.74256-.21175 1.56673-.430998 2.08594-1.048828.18564-1.23567.0241-2.498823.0879-3.746094zm0 4.642579c-1.02682.82668-2.34968 1.102475-3.62305 1.291015-1.80272.238249-3.63208.251695-5.43945.0625v3.759766c2.30156.247753 4.65191.212685 6.91016-.324219.73966-.21175 1.5627-.431994 2.07031-1.052734.17114-1.23566.024-2.491958.082-3.736328zm0 4.640625c-1.03262.82668-2.3585 1.105375-3.63477 1.291015-1.79985.238228-3.62363.251625-5.42773.0625v3.75586c1.90094.22591 3.83053.209146 5.72266-.08008 1.12834-.22915 2.43107-.393719 3.25195-1.287109.18274-1.23567.027-2.497817.0879-3.742187z"/></g><path d="m1.5878047 6.2174041v3.2415032c-.011456 2.3393377.2397775 2.5790437 2.5743937 2.5790437h4.3757445c2.3346161 0 2.5743931-.23968 2.5743931-2.5790437v-3.2415032z" opacity=".1"/><path d="m6.3500707.39685714v11.64109386h2.1878722c2.3346161 0 2.5743931-.23968 2.5743931-2.5790437v-3.2415032-3.1748438l-2.6457027-2.64570316z" opacity=".1"/></g><path d="m4.1621984.13228674c-.5881821 0-1.0513178.013541-1.4323996.077511-.3810845.0639688-.692923.1839554-.9213477.4118407-.2284221.2278855-.3489841.53958346-.4123567.92082876-.0633725.3812455-.0757438.8453924-.07286 1.4349839v3.239953 3.2415032c-.00286.5886857.00955 1.0525967.07286 1.4334327.063373.381246.1839346.692944.4123567.920829.2284247.227885.5402632.347873.9213477.411841.3810845.06397.8442175.07751 1.4323996.07751h4.3757445c.5881822 0 1.0510744-.01352 1.4313678-.07751.3802933-.064.6911793-.18439.9187603-.412357.227583-.227967.347433-.539443.411325-.920313.06389-.380868.07751-.844072.07751-1.4334327v-3.2415032-3.2843924l-2.8007248-2.80072496zm0 .2645704h4.3044349l2.6457027 2.64570316v3.1748438 3.2415032c0 2.3393637-.239777 2.5790437-2.5743931 2.5790437h-4.3757445c-2.3346162 0-2.5858495-.239706-2.5743937-2.5790437v-3.2415032-3.2415031c-.0114426-2.33933866.2397775-2.57904386 2.5743937-2.57904386z" opacity=".4"/><path d="m4.1621984.39685714c-2.3346162 0-2.5858363.2397052-2.5743937 2.57904386v3.2415031 3.2415032c-.011456 2.3393377.2397775 2.5790437 2.5743937 2.5790437h4.3757445c2.3346161 0 2.5743931-.23968 2.5743931-2.5790437v-3.2415032-3.1748438h-.26457v3.1748438 3.2415032c0 .5803217-.01624 1.0240707-.07028 1.3461027-.05402.322035-.13987.509124-.264054.633525-.124184.124387-.310701.2105-.6319714.26457-.321273.05406-.7643966.07028-1.3435225.07028h-4.3757397c-.5791259 0-1.0227997-.01619-1.3450729-.07028-.3222704-.0541-.5102953-.14009-.635072-.26457-.124774-.124489-.2105874-.311352-.2640518-.633006-.053467-.321654-.0684681-.765511-.0656266-1.3455887v-.000529-3.2420072-3.2420198-.0005292c-.00283-.5800778.01217-1.0239334.065627-1.3455882.053467-.3216548.1392778-.5085248.2640518-.63300506.124774-.1244804.3133201-.2104737.6355906-.2645704.3222705-.0540718.7654284-.070264 1.3445543-.070264h4.3044349v-.2645703z" fill="url(#a)" opacity=".4"/><path d="m11.112336 3.3071306v-.2645703l-2.6457027-2.64570316h-.2645704v1.11359066.042668.022917c0 1.505929.201592 1.7381397 1.7109763 1.730759z" fill="#6d1618" opacity=".6"/><path d="m11.112336 3.0422216-2.6457027-2.64536506v.98127596.042668.022917c0 1.505929.069402 1.6058848 1.5787867 1.598504z" fill="#df6165"/></svg>

<?xml version="1.0" encoding="UTF-8" standalone="no"?>
<svg
   xmlns:dc="http://purl.org/dc/elements/1.1/"
   xmlns:cc="http://creativecommons.org/ns#"
   xmlns:rdf="http://www.w3.org/1999/02/22-rdf-syntax-ns#"
   xmlns:svg="http://www.w3.org/2000/svg"
   xmlns="http://www.w3.org/2000/svg"
   xmlns:xlink="http://www.w3.org/1999/xlink"
   xmlns:sodipodi="http://sodipodi.sourceforge.net/DTD/sodipodi-0.dtd"
   xmlns:inkscape="http://www.inkscape.org/namespaces/inkscape"
   height="48"
   viewBox="0 0 12.699375 12.699376"
   width="48"
   version="1.1"
   id="svg32"
   sodipodi:docname="application-msaccess.svg"
   inkscape:version="0.92.5 (2060ec1f9f, 2020-04-08)">
  <metadata
     id="metadata38">
    <rdf:RDF>
      <cc:Work
         rdf:about="">
        <dc:format>image/svg+xml</dc:format>
        <dc:type
           rdf:resource="http://purl.org/dc/dcmitype/StillImage" />
      </cc:Work>
    </rdf:RDF>
  </metadata>
  <defs
     id="defs36">
    <linearGradient
       gradientTransform="matrix(0.26457032,0,0,0.26457032,-84.662118,-16.006504)"
       inkscape:collect="always"
       xlink:href="#linearGradient927"
       id="linearGradient1004"
       x1="344"
       y1="62"
       x2="344"
       y2="106"
       gradientUnits="userSpaceOnUse" />
    <linearGradient
       inkscape:collect="always"
       id="linearGradient927">
      <stop
         style="stop-color:#ffffff;stop-opacity:1;"
         offset="0"
         id="stop923" />
      <stop
         id="stop933"
         offset="0.125"
         style="stop-color:#ffffff;stop-opacity:0.09803922" />
      <stop
         id="stop931"
         offset="0.92500001"
         style="stop-color:#ffffff;stop-opacity:0.09803922" />
      <stop
         style="stop-color:#ffffff;stop-opacity:0.49803922"
         offset="1"
         id="stop925" />
    </linearGradient>
    <linearGradient
       inkscape:collect="always"
       xlink:href="#linearGradient4338-3-6"
       id="linearGradient1024"
       gradientUnits="userSpaceOnUse"
       gradientTransform="matrix(0,-0.03065201,0.03080135,0,-3.2999678,13.793737)"
       x1="441.37933"
       y1="240.30261"
       x2="52.965569"
       y2="386.30783" />
    <linearGradient
       inkscape:collect="always"
       id="linearGradient4338-3-6">
      <stop
         style="stop-color:#b52428;stop-opacity:1"
         offset="0"
         id="stop4340-0-7" />
      <stop
         style="stop-color:#d32429;stop-opacity:1"
         offset="1"
         id="stop4342-7-5" />
    </linearGradient>
  </defs>
  <sodipodi:namedview
     pagecolor="#ffffff"
     bordercolor="#666666"
     borderopacity="1"
     objecttolerance="10"
     gridtolerance="10"
     guidetolerance="10"
     inkscape:pageopacity="0"
     inkscape:pageshadow="2"
     inkscape:window-width="834"
     inkscape:window-height="480"
     id="namedview34"
     showgrid="false"
     inkscape:zoom="4.9166667"
     inkscape:cx="24"
     inkscape:cy="24"
     inkscape:window-x="0"
     inkscape:window-y="28"
     inkscape:window-maximized="0"
     inkscape:current-layer="svg32" />
  <linearGradient
     id="a"
     gradientUnits="userSpaceOnUse"
     x1="6.35044608"
     x2="6.35044608"
     y1=".13228552"
     y2="12.30252024">
    <stop
       offset="0"
       stop-color="#fff"
       id="stop2" />
    <stop
       offset=".125"
       stop-color="#fff"
       stop-opacity=".098039"
       id="stop4" />
    <stop
       offset=".92500001"
       stop-color="#fff"
       stop-opacity=".098039"
       id="stop6" />
    <stop
       offset="1"
       stop-opacity=".498039"
       id="stop8" />
  </linearGradient>
  <linearGradient
     id="b"
     gradientTransform="matrix(0 -.02997086 -.02997 0 15.739287 13.625372)"
     gradientUnits="userSpaceOnUse"
     x1="512"
     x2="-.000001"
     y1="397.99393"
     y2="125.99394">
    <stop
       offset="0"
       stop-color="#b52428"
       id="stop11" />
    <stop
       offset="1"
       stop-color="#d32429"
       id="stop13" />
  </linearGradient>
  <path
     style="color:#000000;font-style:normal;font-variant:normal;font-weight:normal;font-stretch:normal;font-size:medium;line-height:normal;font-family:sans-serif;font-variant-ligatures:normal;font-variant-position:normal;font-variant-caps:normal;font-variant-numeric:normal;font-variant-alternates:normal;font-feature-settings:normal;text-indent:0;text-align:start;text-decoration:none;text-decoration-line:none;text-decoration-style:solid;text-decoration-color:#000000;letter-spacing:normal;word-spacing:normal;text-transform:none;writing-mode:lr-tb;direction:ltr;text-orientation:mixed;dominant-baseline:auto;baseline-shift:baseline;text-anchor:start;white-space:normal;shape-padding:0;clip-rule:nonzero;display:inline;overflow:visible;visibility:visible;opacity:0.1;isolation:auto;mix-blend-mode:normal;color-interpolation:sRGB;color-interpolation-filters:linearRGB;solid-color:#000000;solid-opacity:1;vector-effect:none;fill:#000000;fill-opacity:1;fill-rule:nonzero;stroke:none;stroke-width:0.52914065;stroke-linecap:butt;stroke-linejoin:miter;stroke-miterlimit:4;stroke-dasharray:none;stroke-dashoffset:0;stroke-opacity:1;marker:none;color-rendering:auto;image-rendering:auto;shape-rendering:auto;text-rendering:auto;enable-background:accumulate"
     d="M 4.1621984,0.39685714 C 3.574085,0.38789874 3.1108806,0.41039784 2.7297988,0.47436804 2.3487143,0.53833684 2.0368758,0.65832354 1.8084511,0.88620874 1.580029,1.1140942 1.459467,1.4257922 1.3960944,1.8070375 1.3327219,2.1882831 1.3203506,2.6524299 1.3232344,3.2420214 v 3.239953 3.2415029 c -0.00286,0.5886857 0.00955,1.0525967 0.07286,1.4334327 0.063373,0.381246 0.1839346,0.692944 0.4123567,0.920829 0.2284247,0.227885 0.5402632,0.347873 0.9213477,0.411841 0.3810845,0.06397 0.8442175,0.07751 1.4323996,0.07751 h 4.3757445 c 0.5881822,0 1.0510744,-0.01352 1.4313678,-0.07751 0.3802933,-0.064 0.6911793,-0.18439 0.9187603,-0.412357 0.227583,-0.227967 0.347433,-0.539443 0.411325,-0.920313 0.06389,-0.380867 0.07751,-0.844073 0.07751,-1.4334327 V 6.4819744 3.3071306 L 8.5379429,0.46351644 Z"
     id="path1020"
     inkscape:connector-curvature="0"
     sodipodi:nodetypes="sccsccccccsscccscccs" />
  <path
     style="color:#000000;display:inline;overflow:visible;visibility:visible;fill:url(#linearGradient1024);fill-opacity:1;fill-rule:nonzero;stroke:none;stroke-width:0.26457033;marker:none;enable-background:accumulate"
     d="m 4.101678,0.26457244 c -2.3993778,0 -2.6575482,0.2452432 -2.645788,2.63774856 V 6.2174047 9.5324883 C 1.444117,11.924992 1.7023002,12.170236 4.101678,12.170236 h 4.4971584 c 2.3993776,0 2.6457876,-0.245215 2.6457876,-2.6377477 V 6.2174047 L 11.244442,2.9704053 8.5253493,0.26457244 Z"
     id="path964"
     inkscape:connector-curvature="0"
     sodipodi:nodetypes="scccssscccs" />
  <g
     transform="matrix(0.26457032,0,0,0.26457032,-84.662188,-14.948135)"
     style="display:inline;enable-background:new"
     id="g21310">
    <path
       inkscape:connector-curvature="0"
       id="path1309"
       d="m 344.63307,72.126623 -12.63281,1.873047 -0.002,19.133142 L 344.54492,95 h 1.45313 c 0,0 -0.007,-22.873377 0.002,-22.873377 z m -5.24049,7.457361 c 0.89543,2.993679 1.74416,6.003636 2.6289,9 -0.61744,-0.04012 -1.2336,-0.0864 -1.8457,-0.142578 -0.16305,-0.668234 -0.33726,-1.336394 -0.51367,-2.001953 -0.82059,-0.0031 -1.64107,-0.03019 -2.45899,-0.07031 -0.15771,0.633482 -0.31742,1.265677 -0.48046,1.896484 -0.5239,-0.04012 -1.04519,-0.07854 -1.56641,-0.113281 0.78049,-2.814588 1.59205,-5.619005 2.36719,-8.433594 0.62279,-0.04545 1.24367,-0.0867 1.86914,-0.134766 z m -1.00586,1.59961 c -0.17908,1.269638 -0.57963,2.493205 -0.84961,3.74414 0.58805,0.0052 1.17687,0.0076 1.76758,0.0098 -0.3047,-1.250925 -0.6774,-2.486943 -0.91797,-3.753906 z"
       style="display:inline;fill:#ffffff;stroke-width:1.33333325;enable-background:new"
       sodipodi:nodetypes="cccccccccccccccccccccc" />
    <path
       inkscape:connector-curvature="0"
       id="path992"
       d="m 349.42578,75.001953 c -0.8117,0.0082 -1.62246,0.07363 -2.42578,0.167969 v 3.724609 c 2.56977,0.326134 5.22264,0.206585 7.6875,-0.625 0.55692,-0.24365 1.26092,-0.548769 1.37695,-1.224609 -0.15664,-0.82668 -1.08409,-1.136381 -1.77734,-1.394531 -1.57359,-0.48042 -3.21735,-0.664578 -4.86133,-0.648438 z m 6.63672,3.443359 c -1.03262,0.829581 -2.36436,1.106382 -3.64062,1.294922 -1.79697,0.235532 -3.62027,0.247776 -5.42188,0.06055 v 3.757813 c 2.29542,0.24999 4.63621,0.213056 6.88867,-0.31836 0.74256,-0.21175 1.56673,-0.430998 2.08594,-1.048828 0.18564,-1.23567 0.0241,-2.498823 0.0879,-3.746094 z m 0,4.642579 c -1.02682,0.82668 -2.34968,1.102475 -3.62305,1.291015 -1.80272,0.238249 -3.63208,0.251695 -5.43945,0.0625 v 3.759766 c 2.30156,0.247753 4.65191,0.212685 6.91016,-0.324219 0.73966,-0.21175 1.5627,-0.431994 2.07031,-1.052734 0.17114,-1.23566 0.024,-2.491958 0.082,-3.736328 z m 0,4.640625 c -1.03262,0.82668 -2.3585,1.105375 -3.63477,1.291015 -1.79985,0.238228 -3.62363,0.251625 -5.42773,0.0625 v 3.75586 c 1.90094,0.22591 3.83053,0.209146 5.72266,-0.08008 1.12834,-0.22915 2.43107,-0.393719 3.25195,-1.287109 0.18274,-1.23567 0.027,-2.497817 0.0879,-3.742187 z"
       style="display:inline;fill:#ffffff;stroke-width:1.33333325;enable-background:new" />
  </g>
  <path
     style="color:#000000;display:inline;overflow:visible;visibility:visible;opacity:0.1;fill:#ffffff;fill-opacity:1;fill-rule:nonzero;stroke:none;stroke-width:0.26457033;marker:none;enable-background:accumulate"
     d="m 1.5878047,6.2174041 v 3.2415032 c -0.011456,2.3393377 0.2397775,2.5790437 2.5743937,2.5790437 h 4.3757445 c 2.3346161,0 2.5743931,-0.23968 2.5743931,-2.5790437 V 6.2174041 Z"
     id="path1006"
     inkscape:connector-curvature="0" />
  <path
     style="color:#000000;display:inline;overflow:visible;visibility:visible;opacity:0.1;fill:#ffffff;fill-opacity:1;fill-rule:nonzero;stroke:none;stroke-width:0.26457033;marker:none;enable-background:accumulate"
     d="M 6.3500707,0.39685714 V 12.037951 h 2.1878722 c 2.3346161,0 2.5743931,-0.23968 2.5743931,-2.5790437 V 6.2174041 3.0425603 L 8.4666333,0.39685714 Z"
     id="path1013"
     inkscape:connector-curvature="0"
     sodipodi:nodetypes="ccsscccc" />
  <path
     style="color:#000000;font-style:normal;font-variant:normal;font-weight:normal;font-stretch:normal;font-size:medium;line-height:normal;font-family:sans-serif;font-variant-ligatures:normal;font-variant-position:normal;font-variant-caps:normal;font-variant-numeric:normal;font-variant-alternates:normal;font-feature-settings:normal;text-indent:0;text-align:start;text-decoration:none;text-decoration-line:none;text-decoration-style:solid;text-decoration-color:#000000;letter-spacing:normal;word-spacing:normal;text-transform:none;writing-mode:lr-tb;direction:ltr;text-orientation:mixed;dominant-baseline:auto;baseline-shift:baseline;text-anchor:start;white-space:normal;shape-padding:0;clip-rule:nonzero;display:inline;overflow:visible;visibility:visible;opacity:0.4;isolation:auto;mix-blend-mode:normal;color-interpolation:sRGB;color-interpolation-filters:linearRGB;solid-color:#000000;solid-opacity:1;vector-effect:none;fill:#000000;fill-opacity:1;fill-rule:nonzero;stroke:none;stroke-width:0.52914065;stroke-linecap:butt;stroke-linejoin:miter;stroke-miterlimit:4;stroke-dasharray:none;stroke-dashoffset:0;stroke-opacity:1;marker:none;color-rendering:auto;image-rendering:auto;shape-rendering:auto;text-rendering:auto;enable-background:accumulate"
     d="m 4.1621984,0.13228674 c -0.5881821,0 -1.0513178,0.013541 -1.4323996,0.077511 -0.3810845,0.0639688 -0.692923,0.1839554 -0.9213477,0.4118407 C 1.580029,0.84952394 1.459467,1.1612219 1.3960944,1.5424672 1.3327219,1.9237127 1.3203506,2.3878596 1.3232344,2.9774511 v 3.239953 3.2415032 c -0.00286,0.5886857 0.00955,1.0525967 0.07286,1.4334327 0.063373,0.381246 0.1839346,0.692944 0.4123567,0.920829 0.2284247,0.227885 0.5402632,0.347873 0.9213477,0.411841 0.3810845,0.06397 0.8442175,0.07751 1.4323996,0.07751 h 4.3757445 c 0.5881822,0 1.0510744,-0.01352 1.4313678,-0.07751 0.3802933,-0.064 0.6911793,-0.18439 0.9187603,-0.412357 0.227583,-0.227967 0.347433,-0.539443 0.411325,-0.920313 0.06389,-0.380868 0.07751,-0.844072 0.07751,-1.4334327 V 6.2174041 2.9330117 L 8.5761812,0.13228674 Z m 0,0.2645704 H 8.4666333 L 11.112336,3.0425603 v 3.1748438 3.2415032 c 0,2.3393637 -0.239777,2.5790437 -2.5743931,2.5790437 H 4.1621984 c -2.3346162,0 -2.5858495,-0.239706 -2.5743937,-2.5790437 V 6.2174041 2.975901 C 1.5763621,0.63656234 1.8275822,0.39685714 4.1621984,0.39685714 Z"
     id="path958"
     inkscape:connector-curvature="0"
     sodipodi:nodetypes="sccsccccccsscccscccsscccssscccs" />
  <path
     style="color:#000000;font-style:normal;font-variant:normal;font-weight:normal;font-stretch:normal;font-size:medium;line-height:normal;font-family:sans-serif;font-variant-ligatures:normal;font-variant-position:normal;font-variant-caps:normal;font-variant-numeric:normal;font-variant-alternates:normal;font-feature-settings:normal;text-indent:0;text-align:start;text-decoration:none;text-decoration-line:none;text-decoration-style:solid;text-decoration-color:#000000;letter-spacing:normal;word-spacing:normal;text-transform:none;writing-mode:lr-tb;direction:ltr;text-orientation:mixed;dominant-baseline:auto;baseline-shift:baseline;text-anchor:start;white-space:normal;shape-padding:0;clip-rule:nonzero;display:inline;overflow:visible;visibility:visible;opacity:0.4;isolation:auto;mix-blend-mode:normal;color-interpolation:sRGB;color-interpolation-filters:linearRGB;solid-color:#000000;solid-opacity:1;vector-effect:none;fill:url(#linearGradient1004);fill-opacity:1;fill-rule:nonzero;stroke:none;stroke-width:0.52914065;stroke-linecap:butt;stroke-linejoin:miter;stroke-miterlimit:4;stroke-dasharray:none;stroke-dashoffset:0;stroke-opacity:1;marker:none;color-rendering:auto;image-rendering:auto;shape-rendering:auto;text-rendering:auto;enable-background:accumulate"
     clip-path="none"
     d="m 4.1621984,0.39685714 c -2.3346162,0 -2.5858363,0.2397052 -2.5743937,2.57904386 v 3.2415031 3.2415032 c -0.011456,2.3393377 0.2397775,2.5790437 2.5743937,2.5790437 h 4.3757445 c 2.3346161,0 2.5743931,-0.23968 2.5743931,-2.5790437 V 6.2174041 3.0425603 h -0.26457 v 3.1748438 3.2415032 c 0,0.5803217 -0.01624,1.0240707 -0.07028,1.3461027 -0.05402,0.322035 -0.13987,0.509124 -0.264054,0.633525 -0.124184,0.124387 -0.310701,0.2105 -0.6319714,0.26457 -0.321273,0.05406 -0.7643966,0.07028 -1.3435225,0.07028 H 4.1621984 c -0.5791259,0 -1.0227997,-0.01619 -1.3450729,-0.07028 -0.3222704,-0.0541 -0.5102953,-0.14009 -0.635072,-0.26457 C 2.0572795,11.314046 1.9714661,11.127183 1.9180017,10.805529 1.8645347,10.483875 1.8495336,10.040018 1.8523751,9.4599403 V 9.4594113 6.2174041 2.9753843 2.9748551 c -0.00283,-0.5800778 0.01217,-1.0239334 0.065627,-1.3455882 0.053467,-0.3216548 0.1392778,-0.5085248 0.2640518,-0.63300506 0.124774,-0.1244804 0.3133201,-0.2104737 0.6355906,-0.2645704 0.3222705,-0.0540718 0.7654284,-0.070264 1.3445543,-0.070264 h 4.3044349 v -0.2645703 z"
     id="path990"
     inkscape:connector-curvature="0" />
  <path
     inkscape:connector-curvature="0"
     style="color:#000000;display:inline;overflow:visible;visibility:visible;opacity:0.6;fill:#6d1618;fill-opacity:1;fill-rule:nonzero;stroke:none;stroke-width:0.06614864;marker:none;enable-background:accumulate"
     d="M 11.112336,3.3071306 V 3.0425603 L 8.4666333,0.39685714 H 8.2020629 v 1.11359066 0.042668 0.022917 c 0,1.505929 0.201592,1.7381397 1.7109763,1.730759 z"
     id="rect4158-0-3-62-2"
     sodipodi:nodetypes="ccccccscc" />
  <path
     inkscape:connector-curvature="0"
     style="color:#000000;display:inline;overflow:visible;visibility:visible;fill:#df6165;fill-opacity:1;fill-rule:nonzero;stroke:none;stroke-width:0.06614864;marker:none;enable-background:accumulate"
     d="M 11.112336,3.0422216 8.4666333,0.39685654 v 0.98127596 0.042668 0.022917 c 0,1.505929 0.069402,1.6058848 1.5787867,1.598504 z"
     id="rect4158-0-3-62"
     sodipodi:nodetypes="ccccscc" />
</svg>
